X: 25982
T: Mayday
R: jig
M: 6/8
K: Gmajor
|:d|gab efg|fga f>ed|cde ABc|EAG F>ED|
gab efg|fga f>ed|cde Ad^c|d3 d2:|
|:e/f/|gdB gdB|ecA ecA|dBG dBG|EAG F>ED|
gdB gdB|ecA ecA|Bcd EAF|G3 G2:|

